!!!SOCIAL_FUNCTION:	bird dance songs
!!!PDT:	1932
!!!OTL: No_111_Closing_Song_of_the_Dance.krn
!!!REG: Southwest
!!!LANG: Non-Tone
!!!LING_GROUP: Yuman-Cochimi
**kern	**kern
*staff2	*staff1
=1-	=1-
*clefF4	*clefF4
*k[b-]	*k[b-]
*M5/8	*M5/8
3...r	4r
.	8r
.	8.B-\L
.	16A\Jk
=2	=2
16GG/LL	16c^\LK
16GG/JJ	8.A\
8r	.
8GG/L	16c\Jk
.	16r
8GG/J	8.d\L
8r	.
.	16d\Jk
=3	=3
16GG/LL	16c^\LK
16GG/JJ	8.A\
8r	.
8GG/L	16A\Jk
.	16r
8GG/J	8.c\L
8r	.
.	16c\Jk
=4	=4
16GG/LL	16A^\LK
16GG/JJ	8.G\
8r	.
8GG/L	16F\Jk
.	16r
8GG/J	8.A\L
8r	.
.	16c\Jk
=5	=5
16GG/LL	16G^\LK
16GG/JJ	8.F\J
8r	.
8GG/L	8r
8GG/J	8.F\L
8r	.
.	16F\Jk
=6	=6
16GG/LL	16G^\LK
16GG/JJ	8.F\
8r	.
8GG/L	16G\Jk
.	16r
8GG/J	8.A\L
8r	.
.	16c\Jk
=7	=7
8GG/L	16G^\LK
.	8.F\
8GG/	.
8GG/	16F\Jk
.	16r
8GG/J	8.F\L
8r	.
.	16F\Jk
=8	=8
16GG/LL	16G^\LL
16GG/JJ	16G\JJ
4r	4r
4r	4r
==	==
*-	*-
